X:24404
T:Keel Row 
C:Trad (1770s) 
B: Scots Guard
B:A Collection of Favourite Scots Tunes
H:"The Keel Row" is a traditional Tyneside folk song evoking the life and work of the keelmen of Newcastle upon Tyne. A closely related song was first published in a Scottish collection of the 1770s, but may be considerably older, and it is unclear whether the tune is Scottish or English in origin.
O:Kevin Fraser
Z:Kevin Fraser
Q:1/4=132
K:HP
M:4/4
L:1/8
R:Strathspey
U: R = ///
U: r = //
U: V = !accent!
V:M gstem=up stem=down name="Melody" sname="Melody" 
V:H gstem=up stem=down name="Harmony" sname="Harmony"
V:C gstem=up stem=down name="C-Harmony" sname="C-Harmony"
V:S gstem=up stem=down dyn=up stafflines=1 clef=perc middle=G name="Snare" sname="Snare" sname="Snare"
V:B gstem=up stem=down clef=none dyn=up name="Bass" sname="Bass"
V:T gstem=up stem=down clef=none dyn=up name="Tenor" sname="Tenor"
V:BB gstem=up stem=down name="Brass Bass" sname="ABCD-C" transpose=-1  octave=-1 clef=bass
V:BC gstem=up stem=down name="Brass Chord" sname="ABCD-D" transpose=-1
V:BD gstem=up stem=down name="Brass Chord 2" sname="ABCD-B" transpose=-1
V:P gstem=up stem=down name="Piano" octave=-1
%%score {M}
%%MIDI program 109 #bagpipes
%%MIDI vol 100
%%landscape
V:M
 |: d |{gcd}c2 {e}A>c   {Gdc}d2 {e}B>d   |{gcd}c2 {e}A>c     {gBd}B>A {e}G>d |{gcd}c2 {e}A>c   {Gdc}d2 {gBd}B>d |{g}c>{e}A {g}B>{e}G {g}A2   {GAG}A2:| 
w: a | hoto hen a tra ho a hoto hen o hoto en hem a hoto hen o tra hoto a ho un ho em hen rarin
 |:    {g}c<e  {A}e>a   {fg}f2  {gef}e>d |{gcd}c2 {g}A>{d}c  {gBd}B>A {e}G>d | {g}c<e {A}e>a   {fg}f2  {gef}e>d |{g}c>{e}A {g}B>{e}G {g}A2   {GAG}A2:|                                 
w: ho e ende I veri hete a hoto hen do hoto en um a ho e ende I veri hete a ho un ho em hen rarin
 |: e |{gfg}f2 {Gdc}d>f {gf}g2  {ef}e>g  |{gfg}f2  {Gdc}d>f  {gef}e>c {g}A>g |{gfg}f2 {Gdc}d>f {gf}g2  {ef}e>g  |{fg}f>d   {g}e>c    {Gdc}d2 {gdc}d :| 
w: e chete tra ve viri ete di vhete tran ve hete o hen di chete tran ve viri ete di veri a he o tra hadoa
 |:    {g}c<e  {A}e>a   {fg}f>d {gef}e>d |{gcd}c>B {g}A>{d}c {gBd}B>A {e}G>d | {g}c<e {A}e>a   {fg}f>d {gef}e>d |{g}c>{e}A {g}B>{e}G {g}A2   {GAG}A2::|                                 
w: ho e ende I veri a  hete a hoto o hen do hoto en um a ho e ende I veri a hete a ho un ho em hen rarin
W: As I came thro' Sandgate,
W:Thro' Sandgate, thro' Sandgate,
W:As I came thro' Sandgate,
W:I heard a lassie sing:
W:
W:      "O, weel may the keel row,
W:      The keel row, the keel row,
W:      O weel may the keel row
W:      That my laddie's in."
W: 
W:"He wears a blue bonnet,
W:Blue bonnet, blue bonnet,
W:He wears a blue bonnet
W:A dimple in his chin.



